usr/share/icons/biglinux-icons-material-dark/symbolic/status/pidgin-tray-email-symbolic.svg

<svg xmlns="http://www.w3.org/2000/svg" viewBox="0 0 16 16">
  <defs id="defs3051">
    <style type="text/css" id="current-color-scheme">
      .ColorScheme-Text {
        color:#232629;
      }
      </style>
  </defs>
 <path style="fill:currentColor;fill-opacity:1;stroke:none" 
     d="M 1 2 L 1 14 L 15 14 L 15 2 L 1 2 z M 2.7070312 3 L 13.292969 3 L 8 8.2929688 L 2.7070312 3 z M 2 3.7070312 L 5.9335938 7.640625 L 2 12.230469 L 2 3.7070312 z M 14 3.7070312 L 14 12.232422 L 10.066406 7.640625 L 14 3.7070312 z M 6.6425781 8.3496094 L 8 9.7070312 L 9.3574219 8.3496094 L 13.341797 13 L 2.65625 13 L 6.6425781 8.3496094 z "
     class="ColorScheme-Text"
     />
</svg>

<svg xmlns="http://www.w3.org/2000/svg" viewBox="0 0 16 16">
<defs id="defs3051">
<style id="current-color-scheme" type="text/css">
.ColorScheme-Contrast{color:#232629}
</style>
</defs>
<path d="M1 2v12h14V2zm1.707 1h10.586L8 8.293zM2 3.707l3.934 3.934L2 12.23zm12 0v8.525l-3.934-4.591zM6.643 8.35 8 9.707 9.357 8.35 13.342 13H2.656z" class="ColorScheme-Contrast" style="fill:currentColor;fill-opacity:1;stroke:none"/>
</svg>
